assets/touch-pinch.svg

<svg xmlns="http://www.w3.org/2000/svg" viewBox="0 0 600 600" width="800" height="800"><path d="M161.98 75.01c17.67-.01 35.41-.03 53.08.01 5.57 0 10.43 5.41 9.95 10.95-.07 17.34-.01 34.71-.03 52.05.06 3.34-.88 6.33-3.35 8.65-3.9 3.87-10.48 3.96-14.47.17-2.6-2.31-3.58-5.41-3.52-8.82.02-8.94-.05-17.87.06-26.8-4.29 4.53-8.8 8.85-13.19 13.29-40.44 40.38-80.78 80.93-121.3 121.21 9.27-.06 18.55-.12 27.82 0 5.7 0 10.46 4.6 10.58 10.31.22 5.84-4.73 10.94-10.56 10.93-17.66.11-35.39-.01-53.06.06-5.47.58-11.1-4.46-10.98-9.97-.03-17.33.02-34.72-.03-52.05.05-2.42.01-4.64 1.17-6.83 2.29-4.61 7.95-6.95 12.82-5.26 4.36 1.44 7.28 5.45 7.3 10.05.1 9.25.05 18.51 0 27.76 1.53-1.62 3.09-3.21 4.67-4.78 43.29-43.2 86.46-86.58 129.81-129.71-9.26.05-18.52.06-27.78.02-3.4-.02-6.15-1.36-8.29-3.97-3.18-3.82-3.08-9.68.13-13.45 2.3-2.79 5.63-3.88 9.17-3.82zM343.14 89.87c6.53 7.46 10.01 17.23 9.9 27.12 0 30.49.02 60.98-.01 91.47 12.67-7.01 28.99-7.34 41.68-.19 7.15 3.87 12.97 9.67 17.03 16.7 10.94-8.09 25.21-11 38.34-7.13 15.47 4.39 27.83 17.79 30.39 33.76 9.14-5.3 19.92-7.13 30.3-5.03 18.94 3.77 34.17 20.85 34.22 40.42.02 57 .01 114.01.01 171.01.03 11.31-1.38 22.59-4.38 33.5-5.38 19.68-15.83 37.52-29.55 52.54-16.03 17.56-36.03 31.56-57.64 41.39-4.07 2.12-8.03 1.52-12.43 1.57H327.99c-6.42.02-12.76-1.09-18.75-3.4-12.38-4.66-23.36-13.96-32.17-23.65-11.35-12.44-20.82-27.24-29.29-41.75-20.19-35.09-35.55-72.48-53.16-108.83-4.13-8.69-8.49-17.32-13.37-25.61-3.91-6.71-8.58-12.18-11.36-19.57-4.64-11.73-4.84-24.99.86-36.39 7.03-14.22 22.46-23.3 38.24-23.13 10.94-.06 21.49 4.39 29.1 12.23 9.9 10.14 19.71 20.38 29.62 30.51V124c.01-6.12-.28-11.83 1.45-17.79 4-14.66 16.35-26.35 31.08-29.9 15.41-3.89 32.56 1.48 42.9 13.56z" fill="#ccc"/><path d="M309.99 96.37c8.65-.23 17.1 5.08 20.4 13.12 1.88 4.47 1.21 9.69 1.32 14.51.06 55.33-.09 108.31-.07 163.01-.07 3.42.73 6.62 3.34 8.98 3.65 3.63 9.71 4 13.74.77 2.8-2.14 4.23-5.19 4.23-8.71.12-14.69-.08-29.39.1-44.07.01-8.38 6.04-15.54 13.72-18.31 9.22-3.45 19.95 0 25.46 8.13 3.03 4.26 3.62 9.11 3.44 14.2-.63 20.39-.01 40.66-.02 61.03-.02 3.1.91 5.99 3.19 8.16 3.81 4 10.65 4.11 14.63.3 2.45-2.26 3.53-5.16 3.5-8.46.05-17.34 0-34.72.05-52.06.13-11.72 11.73-20.49 23-19.43 9.9.73 18.7 8.57 19.52 18.64.5 19.56-.58 39.25.16 58.78.13 5.69-.19 11.41.12 17.09.39 5.28 4.96 9.41 10.19 9.6 5.95.18 11.01-4.64 10.99-10.61.16-15.02-.08-30.06.11-45.08.49-10.72 10.52-18.83 20.92-18.89 11.05-.34 21.49 8.61 21.65 19.9.07 52.26.01 104.75.03 157.03-.07 10.88.44 21.2-1.5 31.99-3.08 18.45-11.5 35.45-23.46 49.75-13.43 16.06-30.93 28.94-49.62 38.25-1.71.8-3.16 1.71-5.12 1.68-37.93 0-76.11-.02-114.02.01-4.89.14-9.73-.51-14.25-2.42-9.3-3.85-17.43-11.51-24.03-18.95-11.6-13.38-21.01-28.97-29.63-44.39-18.49-33.39-33.48-69.67-50.18-103.81-5.48-11.17-11.3-22.39-18.37-32.64-4.56-6.78-7.41-15.47-4.86-23.54 3.37-10.49 16.01-16.36 26.33-12.95 3.09.96 5.73 2.72 7.96 5.04 15.6 16.06 31.28 32.08 46.85 48.19 1.99 2.06 4.19 3.72 7.15 4 4.38.6 8.69-1.62 10.78-5.5 1.77-3.06 1.23-7.28 1.31-10.71-.02-81.67 0-163.33-.01-245 .06-4.34-.4-8.69 1.16-12.8 2.93-8.13 11.2-13.74 19.79-13.83z" fill="#111"/></svg>

<?xml version="1.0" encoding="UTF-8" standalone="no"?>
<!DOCTYPE svg PUBLIC "-//W3C//DTD SVG 1.1//EN" "http://www.w3.org/Graphics/SVG/1.1/DTD/svg11.dtd">
<svg xmlns="http://www.w3.org/2000/svg" version="1.1" viewBox="0 0 600 600" width="600.0pt" height="600.0pt">
<path d="M 161.98 75.01 C 179.65 75.00 197.39 74.98 215.06 75.02 C 220.63 75.02 225.49 80.43 225.01 85.97 C 224.94 103.31 225.00 120.68 224.98 138.02 C 225.04 141.36 224.10 144.35 221.63 146.67 C 217.73 150.54 211.15 150.63 207.16 146.84 C 204.56 144.53 203.58 141.43 203.64 138.02 C 203.66 129.08 203.59 120.15 203.70 111.22 C 199.41 115.75 194.90 120.07 190.51 124.51 C 150.07 164.89 109.73 205.44 69.21 245.72 C 78.48 245.66 87.76 245.60 97.03 245.72 C 102.73 245.72 107.49 250.32 107.61 256.03 C 107.83 261.87 102.88 266.97 97.05 266.96 C 79.39 267.07 61.66 266.95 43.99 267.02 C 38.52 267.60 32.89 262.56 33.01 257.05 C 32.98 239.72 33.03 222.33 32.98 205.00 C 33.03 202.58 32.99 200.36 34.15 198.17 C 36.44 193.56 42.10 191.22 46.97 192.91 C 51.33 194.35 54.25 198.36 54.27 202.96 C 54.37 212.21 54.32 221.47 54.27 230.72 C 55.80 229.10 57.36 227.51 58.94 225.94 C 102.23 182.74 145.40 139.36 188.75 96.23 C 179.49 96.28 170.23 96.29 160.97 96.25 C 157.57 96.23 154.82 94.89 152.68 92.28 C 149.50 88.46 149.60 82.60 152.81 78.83 C 155.11 76.04 158.44 74.95 161.98 75.01 Z" fill="#ccc" />
<path d="M 343.14 89.87 C 349.67 97.33 353.15 107.10 353.04 116.99 C 353.04 147.48 353.06 177.97 353.03 208.46 C 365.70 201.45 382.02 201.12 394.71 208.27 C 401.86 212.14 407.68 217.94 411.74 224.97 C 422.68 216.88 436.95 213.97 450.08 217.84 C 465.55 222.23 477.91 235.63 480.47 251.60 C 489.61 246.30 500.39 244.47 510.77 246.57 C 529.71 250.34 544.94 267.42 544.99 286.99 C 545.01 343.99 545.00 401.00 545.00 458.00 C 545.03 469.31 543.62 480.59 540.62 491.50 C 535.24 511.18 524.79 529.02 511.07 544.04 C 495.04 561.60 475.04 575.60 453.43 585.43 C 449.36 587.55 445.40 586.95 441.00 587.00 C 403.33 587.00 365.66 587.00 327.99 587.00 C 321.57 587.02 315.23 585.91 309.24 583.60 C 296.86 578.94 285.88 569.64 277.07 559.95 C 265.72 547.51 256.25 532.71 247.78 518.20 C 227.59 483.11 212.23 445.72 194.62 409.37 C 190.49 400.68 186.13 392.05 181.25 383.76 C 177.34 377.05 172.67 371.58 169.89 364.19 C 165.25 352.46 165.05 339.20 170.75 327.80 C 177.78 313.58 193.21 304.50 208.99 304.67 C 219.93 304.61 230.48 309.06 238.09 316.90 C 247.99 327.04 257.80 337.28 267.71 347.41 C 267.71 272.94 267.71 198.47 267.71 124.00 C 267.72 117.88 267.43 112.17 269.16 106.21 C 273.16 91.55 285.51 79.86 300.24 76.31 C 315.65 72.42 332.80 77.79 343.14 89.87 Z" fill="#ccc" />
<path d="M 309.99 96.37 C 318.64 96.14 327.09 101.45 330.39 109.49 C 332.27 113.96 331.60 119.18 331.71 124.00 C 331.77 179.33 331.62 232.31 331.64 287.01 C 331.57 290.43 332.37 293.63 334.98 295.99 C 338.63 299.62 344.69 299.99 348.72 296.76 C 351.52 294.62 352.95 291.57 352.95 288.05 C 353.07 273.36 352.87 258.66 353.05 243.98 C 353.06 235.60 359.09 228.44 366.77 225.67 C 375.99 222.22 386.72 225.67 392.23 233.80 C 395.26 238.06 395.85 242.91 395.67 248.00 C 395.04 268.39 395.66 288.66 395.65 309.03 C 395.63 312.13 396.56 315.02 398.84 317.19 C 402.65 321.19 409.49 321.30 413.47 317.49 C 415.92 315.23 417.00 312.33 416.97 309.03 C 417.02 291.69 416.97 274.31 417.02 256.97 C 417.15 245.25 428.75 236.48 440.02 237.54 C 449.92 238.27 458.72 246.11 459.54 256.18 C 460.04 275.74 458.96 295.43 459.70 314.96 C 459.83 320.65 459.51 326.37 459.82 332.05 C 460.21 337.33 464.78 341.46 470.01 341.65 C 475.96 341.83 481.02 337.01 481.00 331.04 C 481.16 316.02 480.92 300.98 481.11 285.96 C 481.60 275.24 491.63 267.13 502.03 267.07 C 513.08 266.73 523.52 275.68 523.68 286.97 C 523.75 339.23 523.69 391.72 523.71 444.00 C 523.64 454.88 524.15 465.20 522.21 475.99 C 519.13 494.44 510.71 511.44 498.75 525.74 C 485.32 541.80 467.82 554.68 449.13 563.99 C 447.42 564.79 445.97 565.70 444.01 565.67 C 406.08 565.67 367.90 565.65 329.99 565.68 C 325.10 565.82 320.26 565.17 315.74 563.26 C 306.44 559.41 298.31 551.75 291.71 544.31 C 280.11 530.93 270.70 515.34 262.08 499.92 C 243.59 466.53 228.60 430.25 211.90 396.11 C 206.42 384.94 200.60 373.72 193.53 363.47 C 188.97 356.69 186.12 348.00 188.67 339.93 C 192.04 329.44 204.68 323.57 215.00 326.98 C 218.09 327.94 220.73 329.70 222.96 332.02 C 238.56 348.08 254.24 364.10 269.81 380.21 C 271.80 382.27 274.00 383.93 276.96 384.21 C 281.34 384.81 285.65 382.59 287.74 378.71 C 289.51 375.65 288.97 371.43 289.05 368.00 C 289.03 286.33 289.05 204.67 289.04 123.00 C 289.10 118.66 288.64 114.31 290.20 110.20 C 293.13 102.07 301.40 96.46 309.99 96.37 Z" fill="#111" />
</svg>
